logos/mapbox.svg

<?xml version="1.0" encoding="UTF-8"?>
<svg width="512px" height="114px" viewBox="0 0 512 114" version="1.1" xmlns="http://www.w3.org/2000/svg" xmlns:xlink="http://www.w3.org/1999/xlink" preserveAspectRatio="xMidYMid">
    <g>
        <path d="M57.6162027,0 C89.4379748,0 115.232405,25.5169441 115.232405,56.9963904 C115.232405,88.4758365 89.4379748,113.99278 57.6162027,113.99278 C25.7944305,113.99278 0,88.4758365 0,56.9963904 C0,25.5169441 25.7944305,0 57.6162027,0 Z M319.837976,31.2229944 C333.383292,31.2229944 344.336203,42.7633211 344.336203,56.9963904 C344.336203,71.2294597 333.383292,82.7697862 319.837976,82.7697862 C313.507684,82.7697862 307.548377,80.2619964 303.107518,75.8438484 L302.792912,75.5250256 L302.792912,99.9520501 L302.78629,100.086383 C302.720596,100.750349 302.17407,101.290996 301.502883,101.355983 L301.367089,101.362534 L292.682532,101.362534 L292.546738,101.355983 C291.875552,101.290996 291.329026,100.750349 291.263332,100.086383 L291.25671,99.9520501 L291.25671,33.9157373 L291.263332,33.7814042 C291.329026,33.1174381 291.875552,32.5767911 292.546738,32.5118038 L292.682532,32.5052529 L301.367089,32.5052529 L301.502883,32.5118038 C302.17407,32.5767911 302.720596,33.1174381 302.78629,33.7814042 L302.792912,33.9157373 L302.792912,38.467755 C307.264811,33.8516243 313.421773,31.2229944 319.837976,31.2229944 Z M43.4875951,29.940736 C23.7205064,49.495178 30.0718988,84.2443835 30.0718988,84.2443835 C30.0718988,84.2443835 65.2637975,90.4633371 84.9660763,70.9730079 C95.9189876,60.1379236 95.5301267,42.1221917 84.0587343,30.8383169 C72.5873419,19.5544421 54.4405064,19.1056516 43.4875951,29.940736 Z M363.649621,12.6302462 L363.785415,12.6367971 C364.456601,12.7017844 365.003128,13.2424313 365.068822,13.9063975 L365.075444,14.0407305 L365.075444,38.467755 C369.547343,33.8516243 375.704305,31.2229944 382.120507,31.2229944 C395.665822,31.2229944 406.618737,42.7633211 406.618737,56.9963904 C406.618737,71.2294597 395.665822,82.7697862 382.120507,82.7697862 C375.790216,82.7697862 369.830909,80.2619964 365.39005,75.8438484 L365.075444,75.5250256 L365.075444,80.0770433 L365.068822,80.2113764 C365.003128,80.8753425 364.456601,81.4159893 363.785415,81.4809765 L363.649621,81.4875274 L354.965064,81.4875274 C354.233091,81.4875274 353.615937,80.9196069 353.545864,80.2113764 L353.539241,80.0770433 L353.539241,14.0407305 C353.539241,13.3166316 354.113338,12.7061169 354.82927,12.6367971 L354.965064,12.6302462 L363.649621,12.6302462 Z M438.570128,31.2229944 C453.217216,31.2229944 465.077468,42.7633211 465.077468,56.9963904 C465.077468,71.2294597 453.217216,82.7697862 438.570128,82.7697862 C423.92304,82.7697862 412.062784,71.2294597 412.062784,56.9963904 C412.062784,42.7633211 423.92304,31.2229944 438.570128,31.2229944 Z M249.324558,31.2229944 C255.654849,31.2229944 261.614156,33.7307841 266.055015,38.1489321 L266.369621,38.467755 L266.369621,33.9157373 L266.376243,33.7814042 C266.441937,33.1174381 266.988463,32.5767911 267.65965,32.5118038 L267.795444,32.5052529 L276.480001,32.5052529 C277.211974,32.5052529 277.829128,33.0731736 277.899201,33.7814042 L277.905823,33.9157373 L277.905823,80.0770433 L277.899201,80.2113764 C277.833507,80.8753425 277.286981,81.4159893 276.615795,81.4809765 L276.480001,81.4875274 L267.795444,81.4875274 L267.65965,81.4809765 C266.988463,81.4159893 266.441937,80.8753425 266.376243,80.2113764 L266.369621,80.0770433 L266.369621,75.5250256 C261.897722,80.1411562 255.74076,82.7697862 249.324558,82.7697862 C235.779241,82.7697862 224.82633,71.2294597 224.82633,56.9963904 C224.82633,42.7633211 235.779241,31.2229944 249.324558,31.2229944 Z M510.574178,32.44114 C510.833418,32.44114 511.092659,32.5052529 511.287091,32.6334788 C511.833924,32.994114 512.038989,33.7491939 511.742075,34.317617 L511.675951,34.4286407 L496.769623,56.8681643 L511.805572,79.5000268 C511.935192,79.7564786 512,80.0129305 512,80.2693819 C512,80.9305465 511.487344,81.4790127 510.83584,81.5449883 L510.703798,81.5516407 L500.787849,81.5516407 C500.069952,81.5516407 499.407277,81.2238681 499.003726,80.6691759 L498.908354,80.5258337 L489.964558,65.7798608 L481.020762,80.5258337 C480.661814,81.1176455 480.02675,81.490942 479.319473,81.5448704 L479.141267,81.5516407 L469.095698,81.5516407 C468.836457,81.5516407 468.577217,81.4875274 468.382785,81.3593017 C467.835951,80.9986665 467.630887,80.2435866 467.927801,79.6751634 L467.993924,79.5641397 L483.029877,56.9322771 L468.123544,34.4927536 C467.993924,34.3004148 467.929116,34.0439631 467.929116,33.7875114 C467.929116,33.1263469 468.441772,32.5778808 469.093276,32.5119053 L469.225318,32.5052529 L479.270887,32.5052529 C479.988784,32.5052529 480.651459,32.8330255 481.055011,33.3877176 L481.150382,33.5310597 L489.89975,48.0205807 L498.649114,33.4669468 C499.008062,32.8751352 499.643126,32.5018386 500.350403,32.4479103 L500.528608,32.44114 L510.574178,32.44114 Z M198.837469,31.2229944 C208.770167,31.2229944 216.86537,38.6819475 217.046031,48.0220135 L217.049115,48.3411454 L217.113925,80.0770433 L217.107303,80.2113764 C217.041609,80.8753425 216.495082,81.4159893 215.823896,81.4809765 L215.688102,81.4875274 L206.938735,81.4875274 C206.206761,81.4875274 205.589607,80.9196069 205.519534,80.2113764 L205.512912,80.0770433 L205.512912,51.8673562 C205.512912,45.9048543 200.911393,41.3528366 195.402532,41.3528366 C190.501266,41.3528366 186.475227,45.5582028 185.596205,51.0534504 L185.551393,51.3544529 L185.616203,80.0770433 L185.609581,80.2113764 C185.543887,80.8753425 184.997361,81.4159893 184.326174,81.4809765 L184.19038,81.4875274 L175.441013,81.4875274 C174.70904,81.4875274 174.091886,80.9196069 174.021812,80.2113764 L174.01519,80.0770433 L174.01519,51.8673562 C174.01519,45.9048543 169.413671,41.3528366 163.90481,41.3528366 C158.678954,41.3528366 154.393114,46.1263467 153.943588,52.137663 L153.924051,52.4443727 L153.924051,80.0770433 L153.917429,80.2113764 C153.851735,80.8753425 153.305209,81.4159893 152.634022,81.4809765 L152.498228,81.4875274 L143.813671,81.4875274 L143.677877,81.4809765 C143.006691,81.4159893 142.460164,80.8753425 142.394471,80.2113764 L142.387848,80.0770433 L142.387848,33.9157373 L142.394471,33.7814042 C142.460164,33.1174381 143.006691,32.5767911 143.677877,32.5118038 L143.813671,32.5052529 L152.498228,32.5052529 L152.634022,32.5118038 C153.305209,32.5767911 153.851735,33.1174381 153.917429,33.7814042 L153.924051,33.9157373 L153.924051,38.0189645 C157.034937,33.7875114 162.025317,31.2229944 167.339747,31.2229944 C174.144811,31.1588815 180.496203,34.8774311 183.671899,40.8399333 C186.458735,35.005657 192.356456,31.2871074 198.837469,31.2229944 Z M380.111393,41.5451752 C371.986031,41.5451752 365.439644,48.1680067 365.148425,56.4793878 L365.140254,56.8040514 L365.140254,57.188729 C365.205064,65.651635 371.880507,72.4476052 380.111393,72.4476052 C388.34228,72.4476052 395.082533,65.5234093 395.082533,56.9963904 C395.082533,48.4693711 388.407088,41.5451752 380.111393,41.5451752 Z M438.505316,41.5451752 C430.274433,41.5451752 423.53418,48.4693711 423.53418,56.9963904 C423.53418,65.5234093 430.209621,72.4476052 438.505316,72.4476052 C446.736203,72.4476052 453.476456,65.5234093 453.476456,56.9963904 C453.476456,48.4693711 446.736203,41.5451752 438.505316,41.5451752 Z M251.333672,41.5451752 C243.102785,41.5451752 236.362532,48.4693711 236.362532,56.9963904 C236.362532,65.5234093 243.037975,72.4476052 251.333672,72.4476052 C259.460369,72.4476052 266.070753,65.822596 266.299182,57.5092935 L266.304811,57.188729 L266.304811,56.8040514 C266.240001,48.3411454 259.564558,41.5451752 251.333672,41.5451752 Z M317.828862,41.5451752 C309.7035,41.5451752 303.157112,48.1680067 302.865893,56.4793878 L302.857722,56.8040514 L302.857722,57.188729 C302.922533,65.651635 309.597976,72.4476052 317.828862,72.4476052 C326.124558,72.4476052 332.800001,65.5234093 332.800001,56.9963904 C332.800001,48.4693711 326.124558,41.5451752 317.828862,41.5451752 Z M64.2268357,33.4028339 L69.8653166,44.8790474 L81.4663291,50.4568721 L69.8653166,56.0346963 L64.2268357,67.5109099 L58.5883544,56.0346963 L46.9873419,50.4568721 L58.5883544,44.8790474 L64.2268357,33.4028339 Z" fill="#485160"></path>
    </g>
</svg>

<svg preserveAspectRatio="xMidYMid" viewBox="0 0 512 114" xmlns="http://www.w3.org/2000/svg">
  <path fill="#485160" d="M57.616 0c31.822 0 57.616 25.517 57.616 56.996 0 31.48-25.794 56.997-57.616 56.997S0 88.476 0 56.996 25.794 0 57.616 0Zm262.222 31.223c13.545 0 24.498 11.54 24.498 25.773S333.383 82.77 319.838 82.77c-6.33 0-12.29-2.508-16.73-6.926l-.315-.319v24.427l-.007.134a1.435 1.435 0 0 1-1.283 1.27l-.136.007h-8.684l-.136-.007a1.435 1.435 0 0 1-1.284-1.27l-.006-.134V33.916l.006-.135a1.435 1.435 0 0 1 1.284-1.27l.136-.006h8.684l.136.007a1.435 1.435 0 0 1 1.283 1.27l.007.134v4.552c4.472-4.616 10.629-7.245 17.045-7.245Zm-276.35-1.282C23.72 49.495 30.072 84.244 30.072 84.244s35.192 6.22 54.894-13.271c10.953-10.835 10.564-28.85-.907-40.135-11.472-11.284-29.618-11.732-40.571-.897ZM363.65 12.63l.135.006a1.435 1.435 0 0 1 1.284 1.27l.006.134v24.427c4.472-4.616 10.63-7.245 17.046-7.245 13.545 0 24.498 11.54 24.498 25.773S395.666 82.77 382.12 82.77c-6.33 0-12.29-2.508-16.731-6.926l-.315-.319v4.552l-.006.134a1.435 1.435 0 0 1-1.284 1.27l-.135.007h-8.685c-.732 0-1.35-.568-1.42-1.277l-.006-.134V14.041c0-.724.574-1.335 1.29-1.404l.136-.007h8.685Zm74.92 18.592c14.647 0 26.507 11.54 26.507 25.773S453.217 82.77 438.57 82.77c-14.647 0-26.507-11.54-26.507-25.774 0-14.233 11.86-25.773 26.507-25.773Zm-189.245 0c6.33 0 12.29 2.508 16.73 6.926l.315.319v-4.552l.006-.135a1.435 1.435 0 0 1 1.284-1.27l.135-.006h8.685c.732 0 1.35.568 1.42 1.276l.006.135v46.161l-.007.134a1.435 1.435 0 0 1-1.283 1.27l-.136.007h-8.685l-.135-.007a1.435 1.435 0 0 1-1.284-1.27l-.006-.134v-4.552c-4.472 4.616-10.63 7.245-17.045 7.245-13.546 0-24.499-11.54-24.499-25.774 0-14.233 10.953-25.773 24.499-25.773Zm261.25 1.218c.258 0 .518.064.712.192.547.361.752 1.116.455 1.685l-.066.11-14.906 22.44L511.806 79.5c.13.256.194.513.194.77 0 .66-.513 1.209-1.164 1.275l-.132.007h-9.916c-.718 0-1.38-.328-1.784-.883l-.096-.143-8.943-14.746-8.944 14.746a2.167 2.167 0 0 1-1.702 1.019l-.178.007h-10.045c-.26 0-.519-.064-.713-.193-.547-.36-.752-1.115-.455-1.684l.066-.11 15.036-22.633-14.906-22.44a1.282 1.282 0 0 1-.195-.704c0-.662.513-1.21 1.164-1.276l.132-.007h10.046c.718 0 1.38.328 1.784.883l.095.143 8.75 14.49 8.75-14.554a2.167 2.167 0 0 1 1.7-1.02l.179-.006h10.045Zm-311.738-1.218c9.933 0 18.028 7.459 18.209 16.799l.003.32.065 31.735-.007.134a1.435 1.435 0 0 1-1.283 1.27l-.136.007h-8.75a1.434 1.434 0 0 1-1.418-1.277l-.007-.134v-28.21c0-5.962-4.602-10.514-10.11-10.514-4.902 0-8.928 4.205-9.807 9.7l-.045.301.065 28.723-.006.134a1.435 1.435 0 0 1-1.284 1.27l-.136.007h-8.749c-.732 0-1.35-.568-1.42-1.277l-.006-.134v-28.21c0-5.962-4.601-10.514-10.11-10.514-5.226 0-9.512 4.773-9.961 10.785l-.02.306v27.633l-.007.134a1.435 1.435 0 0 1-1.283 1.27l-.136.007h-8.684l-.136-.007a1.435 1.435 0 0 1-1.284-1.27l-.006-.134v-46.16l.006-.135a1.435 1.435 0 0 1 1.284-1.27l.136-.006h8.684l.136.007a1.435 1.435 0 0 1 1.283 1.27l.007.134v4.103a16.697 16.697 0 0 1 13.416-6.796c6.805-.064 13.156 3.654 16.332 9.617 2.787-5.834 8.684-9.553 15.165-9.617Zm181.274 10.322c-8.125 0-14.671 6.623-14.963 14.934l-.008.325v.385c.065 8.463 6.74 15.259 14.971 15.259s14.972-6.925 14.972-15.452c0-8.527-6.676-15.45-14.972-15.45Zm58.394 0c-8.23 0-14.97 6.924-14.97 15.451 0 8.527 6.675 15.452 14.97 15.452 8.231 0 14.971-6.925 14.971-15.452 0-8.527-6.74-15.45-14.97-15.45Zm-187.171 0c-8.231 0-14.971 6.924-14.971 15.451 0 8.527 6.675 15.452 14.97 15.452 8.127 0 14.738-6.625 14.966-14.939l.006-.32v-.385c-.065-8.463-6.74-15.259-14.971-15.259Zm66.495 0c-8.125 0-14.672 6.623-14.963 14.934l-.008.325v.385c.065 8.463 6.74 15.259 14.97 15.259 8.297 0 14.972-6.925 14.972-15.452 0-8.527-6.675-15.45-14.971-15.45ZM64.227 33.403l5.638 11.476 11.601 5.578-11.6 5.578-5.64 11.476-5.638-11.476-11.6-5.578 11.6-5.578 5.639-11.476Z"/>
</svg>
